other/fluentreader.svg

<svg width="48" height="48" version="1.1" viewBox="0 0 48 48" xmlns="http://www.w3.org/2000/svg">
 <defs>
  <style>.a{fill:none;stroke:#fff;stroke-linecap:round;stroke-linejoin:round;}</style>
  <style>.a{fill:none;stroke:#fff;stroke-linecap:round;stroke-linejoin:round;}</style>
 </defs>
 <g stroke-miterlimit="7.4286">
  <path class="a" d="m34.872 39.169h5.8516c1.006 0 1.8215-0.81552 1.8215-1.8215v-30.055c0-1.006-0.81552-1.8215-1.8215-1.8215h-30.055c-1.006 0-1.8215 0.81552-1.8215 1.8215v5.6452"/>
  <path class="a" d="m26.893 40.779h6.3581c0.81891 0 1.4828-0.66386 1.4828-1.4828v-24.466c0-0.81891-0.66386-1.4828-1.4828-1.4828h-24.466c-0.81891 0-1.4828 0.66386-1.4828 1.4828v6.2164"/>
  <path class="a" d="m25.498 21.341h-18.897a1.1453 1.1453 0 0 0-1.1453 1.1453v18.897a1.1453 1.1453 0 0 0 1.1453 1.1453h18.897a1.1453 1.1453 0 0 0 1.1453-1.1453v-18.897a1.1453 1.1453 0 0 0-1.1453-1.1453z"/>
  <path class="st0" d="m13.029 37.976"/>
  <line class="st0" x1="13.029" x2="19.07" y1="25.894" y2="25.894"/>
  <line class="st0" x1="13.029" x2="16.956" y1="31.935" y2="31.935"/>
  <line class="st0" x1="13.029" x2="13.029" y1="25.894" y2="37.976"/>
 </g>
 <style type="text/css">.st0{fill:none;stroke:#FFFFFF;stroke-linecap:round;stroke-linejoin:round;stroke-miterlimit:10;}
	.st1{fill:#FFFFFF;}
	.st2{fill:none;stroke:#FFFFFF;stroke-width:0.9976;stroke-linecap:round;stroke-linejoin:round;stroke-miterlimit:10;}
	.st3{fill:none;stroke:#FFFFFF;stroke-width:0.9965;stroke-linecap:round;stroke-linejoin:round;stroke-miterlimit:10;}
	.st4{fill:none;stroke:#FFFFFF;stroke-width:0.8662;stroke-linecap:round;stroke-linejoin:round;stroke-miterlimit:10;}</style>
</svg>

<svg xmlns="http://www.w3.org/2000/svg" viewBox="0 0 48 48"><defs><style>.a{fill:none;stroke:#fff;stroke-linecap:round;stroke-linejoin:round;}</style></defs><path class="a" d="M34.8547,39.1456h5.8425a1.8187,1.8187,0,0,0,1.8187-1.8186V7.3187A1.8187,1.8187,0,0,0,40.6972,5.5H10.6889A1.8187,1.8187,0,0,0,8.87,7.3187v5.6364"/><path class="a" d="M26.8881,40.7531h6.3482a1.48,1.48,0,0,0,1.48-1.4805V14.8447a1.48,1.48,0,0,0-1.48-1.48H8.8083a1.48,1.48,0,0,0-1.48,1.48v6.2067"/><path class="a" d="M25.4953,21.3453H6.6276a1.1436,1.1436,0,0,0-1.1435,1.1436V41.3565A1.1435,1.1435,0,0,0,6.6276,42.5H25.4953a1.1435,1.1435,0,0,0,1.1435-1.1435h0V22.4889A1.1436,1.1436,0,0,0,25.4953,21.3453Z"/><line class="a" x1="13.0457" y1="25.8913" x2="19.0773" y2="25.8913"/><line class="a" x1="13.0457" y1="31.9229" x2="16.9665" y2="31.9229"/><line class="a" x1="13.0457" y1="25.8913" x2="13.0457" y2="37.9545"/></svg>
